src/img/SDRs.svg

<svg width="32" height="32" fill="none" xmlns="http://www.w3.org/2000/svg"><g clip-path="url(#clip0_464_5930)"><path d="M16 22c2.21 0 4-1.79 4-4s-1.79-4-4-4-4 1.79-4 4 1.79 4 4 4zm0-6c1.1 0 2 .9 2 2s-.9 2-2 2-2-.9-2-2 .9-2 2-2z" fill="url(#paint0_linear_464_5930)"/><path d="M24 2H8c-1.1 0-2 .9-2 2v24c0 1.1.9 2 2 2h16c1.1 0 2-.9 2-2V4c0-1.1-.9-2-2-2zm-4 26h-8v-2c0-.55.45-1 1-1h6c.55 0 1 .45 1 1v2zm2 0v-2c0-1.66-1.34-3-3-3h-6c-1.66 0-3 1.34-3 3v2H8V4h16v24h-2z" fill="url(#paint1_linear_464_5930)"/><path d="M18 6h-4v2h4V6z" fill="url(#paint2_linear_464_5930)"/></g><defs><linearGradient id="paint0_linear_464_5930" x1="12.191" y1="13.944" x2="20.751" y2="21.514" gradientUnits="userSpaceOnUse"><stop stop-color="#64B6AC"/><stop offset="1" stop-color="#77D9CD"/></linearGradient><linearGradient id="paint1_linear_464_5930" x1="6.476" y1="1.802" x2="33.739" y2="19.023" gradientUnits="userSpaceOnUse"><stop stop-color="#64B6AC"/><stop offset="1" stop-color="#77D9CD"/></linearGradient><linearGradient id="paint2_linear_464_5930" x1="14.095" y1="5.986" x2="15.943" y2="9.254" gradientUnits="userSpaceOnUse"><stop stop-color="#64B6AC"/><stop offset="1" stop-color="#77D9CD"/></linearGradient><clipPath id="clip0_464_5930"><path fill="#fff" d="M0 0h32v32H0z"/></clipPath></defs></svg>

<svg width="32" height="32" viewBox="0 0 32 32" fill="none" xmlns="http://www.w3.org/2000/svg">
<g clip-path="url(#clip0_464_5930)">
<path d="M16 22C18.21 22 20 20.21 20 18C20 15.79 18.21 14 16 14C13.79 14 12 15.79 12 18C12 20.21 13.79 22 16 22ZM16 16C17.1 16 18 16.9 18 18C18 19.1 17.1 20 16 20C14.9 20 14 19.1 14 18C14 16.9 14.9 16 16 16Z" fill="url(#paint0_linear_464_5930)"/>
<path d="M24 2H8C6.9 2 6 2.9 6 4V28C6 29.1 6.9 30 8 30H24C25.1 30 26 29.1 26 28V4C26 2.9 25.1 2 24 2ZM20 28H12V26C12 25.45 12.45 25 13 25H19C19.55 25 20 25.45 20 26V28ZM22 28V26C22 24.34 20.66 23 19 23H13C11.34 23 10 24.34 10 26V28H8V4H24V28H22Z" fill="url(#paint1_linear_464_5930)"/>
<path d="M18 6H14V8H18V6Z" fill="url(#paint2_linear_464_5930)"/>
</g>
<defs>
<linearGradient id="paint0_linear_464_5930" x1="12.1905" y1="13.9435" x2="20.7514" y2="21.5143" gradientUnits="userSpaceOnUse">
<stop stop-color="#64B6AC"/>
<stop offset="1" stop-color="#77D9CD"/>
</linearGradient>
<linearGradient id="paint1_linear_464_5930" x1="6.47619" y1="1.80211" x2="33.7385" y2="19.0232" gradientUnits="userSpaceOnUse">
<stop stop-color="#64B6AC"/>
<stop offset="1" stop-color="#77D9CD"/>
</linearGradient>
<linearGradient id="paint2_linear_464_5930" x1="14.0952" y1="5.98586" x2="15.943" y2="9.254" gradientUnits="userSpaceOnUse">
<stop stop-color="#64B6AC"/>
<stop offset="1" stop-color="#77D9CD"/>
</linearGradient>
<clipPath id="clip0_464_5930">
<rect width="32" height="32" fill="white"/>
</clipPath>
</defs>
</svg>
